X: 0783
T: LADY HOP'S REEL
B: Oliver Ditson "The Boston Collection of Instrumental Music" 1910 p.78 #3
F: http://conquest.imslp.info/files/imglnks/usimg/8/8f/IMSLP175643-PMLP309456-bostoncollection00bost_bw.pdf
%: 2012 John Chambers <jc:trillian.mit.edu>
M: 2/2
L: 1/8
K: G
   B | GBdg edcB | g2bg aA AB | GBdg edcB | cAdB G/G/G G :|
|: d | gdga b2ag | fdad  bdad | gdga b2ag | dg fa g/g/g a2 |
       gdga b2ag | agab c'bab | gedc B2ge | d>B c>A G/G/G G :|

%%sep 1 1 500
%%sep 1 1 500
